icons/mobile/20/svg/shield-slash-fill-20.svg

<svg width="20" height="20" viewBox="0 0 20 20" fill="none" xmlns="http://www.w3.org/2000/svg">
<path d="M2.71979 3.21981C3.01269 2.92694 3.48745 2.92693 3.78034 3.21981L17.2803 16.7198C17.5731 17.0127 17.5732 17.4875 17.2803 17.7804C16.9875 18.0732 16.5127 18.0732 16.2198 17.7804L13.9503 15.5108C13.1775 16.3456 12.3064 17.0735 11.379 17.6231C10.956 17.8741 10.4809 17.9991 10.004 17.9991C9.51999 17.9991 9.03561 17.8704 8.60163 17.6124C7.11176 16.7264 5.73844 15.3989 4.73249 13.8751C4.18849 13.0491 3.80486 12.0466 3.59186 10.8936L3.14557 8.47079C2.95242 7.42182 3.3845 6.37026 4.20026 5.76083L2.71979 4.28036C2.4269 3.98746 2.4269 3.5127 2.71979 3.21981Z" fill="black"/>
<path d="M8.43268 3.47469C9.38668 2.83769 10.6099 2.84239 11.5489 3.48739C12.1079 3.87236 12.6942 4.23175 13.2891 4.55673C13.9231 4.90369 14.5747 5.21738 15.2257 5.48837C16.4036 5.97933 17.0875 7.25275 16.8526 8.51766L16.4092 10.9034C16.2442 11.7943 15.9715 12.5931 15.6046 13.294L6.77643 4.46493C7.34328 4.157 7.90082 3.8296 8.43268 3.47469Z" fill="black"/>
</svg>

<!-- This Source Code Form is subject to the terms of the Mozilla Public
   - License, v. 2.0. If a copy of the MPL was not distributed with this
   - file, You can obtain one at http://mozilla.org/MPL/2.0/. -->
<svg xmlns="http://www.w3.org/2000/svg" width="20" height="20" fill="none" viewBox="0 0 20 20">
    <path fill="#000" d="M2.72 3.22a.75.75 0 0 1 1.06 0l13.5 13.5a.75.75 0 0 1-1.06 1.06l-2.27-2.27c-.772.836-1.644 1.563-2.571 2.113a2.7 2.7 0 0 1-1.375.376c-.484 0-.968-.129-1.402-.387-1.49-.886-2.864-2.213-3.87-3.737-.544-.826-.927-1.828-1.14-2.981L3.146 8.47A2.77 2.77 0 0 1 4.2 5.76L2.72 4.28a.75.75 0 0 1 0-1.061M8.433 3.475a2.765 2.765 0 0 1 3.116.012 20.315 20.315 0 0 0 3.677 2.001 2.75 2.75 0 0 1 1.627 3.03l-.444 2.385a8.5 8.5 0 0 1-.804 2.391l-8.829-8.83a21 21 0 0 0 1.657-.99" />
</svg>
